src/2-landmarks/ticket-office--handle-card.svg

<svg width="1300" height="1000" viewBox="0 0 1300 1000" fill="none" xmlns="http://www.w3.org/2000/svg"><path fill-rule="evenodd" clip-rule="evenodd" d="M987 335c1.842-.004 8.88-.506 12.649-1.914 4.511-1.684 8.751-4.937 11.671-8.613 2.11-2.652 4.28-8.036 5.32-10.829a25.09 25.09 0 0 0 1.01-3.617l4.86-23.833c.29-1.783.49-3.939.49-5.742 0-4.783-.91-9.015-2.92-13.398-2.01-4.383-4.59-8.232-8.27-11.484-3.68-3.252-8.52-6.048-13.262-7.625-4.737-1.466-6.585-1.778-11.548-1.945-4.624.038-7.296.483-11.676 1.945-5.64 1.883-8.779 3.629-13.135 7.625-4.085 3.749-6.038 6.446-8.27 11.484-2.173 4.905-2.899 8.047-2.919 13.398-.008 2.25.487 5.742.487 5.742l4.093 24.154c.19 1.122.439 2.231.801 3.31.884 2.63 2.832 7.831 5.322 10.853 3.679 4.466 6.714 6.496 12.162 8.575C978.699 334.931 987 335 987 335Zm0-7c1.484-.004 7.153-.427 10.189-1.613 3.631-1.419 7.051-4.16 9.401-7.258 1.65-2.168 3.34-6.503 4.21-8.91.4-1.135.7-2.302.93-3.486l3.88-19.862c.23-1.502.39-3.319.39-4.839 0-4.03-.73-7.596-2.35-11.29-1.62-3.694-3.7-6.937-6.66-9.677-2.97-2.741-6.87-5.097-10.688-6.426-3.815-1.236-5.304-1.498-9.302-1.639-3.725.032-5.878.407-9.405 1.639-4.544 1.587-7.073 3.058-10.581 6.426-3.292 3.159-4.864 5.431-6.663 9.677-1.75 4.134-2.335 6.781-2.351 11.29-.007 1.896.392 4.839.392 4.839l3.265 20.155c.174 1.079.403 2.145.741 3.184.739 2.271 2.275 6.477 4.224 8.951 2.963 3.764 5.408 5.474 9.797 7.226C980.313 327.942 987 328 987 328Z" fill="#000"/><path d="m873.429 466.31.01.01-.46.97-.02.05h-.01l.02-.05.89-2.02.06.01-.49 1.03Z" fill="#000"/><path fill-rule="evenodd" clip-rule="evenodd" d="M700 120c0-11.046 8.954-20 20-20h460c11.05 0 20 8.954 20 20v780h100v100H0V900h700V120Zm22-13h456c8.28 0 15 6.716 15 15v28H707v-28c0-8.284 6.716-15 15-15Zm-15 793h486V507H707v393Zm486-743v343h-104.04c.28-10.498.47-21.054.47-30.838 0-1.662-5.91-57.127-23.43-93.162-15.05-29.175-40.06-34.545-80.183-34.979-36.975-.426-60.317 6.979-85.944 34.197C879.5 406 866 428.5 866 428.5l-42.5-42-19.491-26.766 8.651-8.651a3 3 0 0 0 0-4.243l-41.719-41.719a3 3 0 0 0-4.243 0l-27.577 27.577a3 3 0 0 0 0 4.243l37.417 37.417L782 396l61.489 72.047c-3.776 9.845-5.885 20.638-5.937 31.953H707V157h486ZM784.076 374.968l-1.115-4.086-.115-.115-2.639-9.019c-1.353-4.622 2.113-9.248 6.929-9.248a7.22 7.22 0 0 1 6.007 3.215L816 390l48.244 46.839c-7.044 6.643-12.977 14.66-17.447 23.667L789.5 393.5l-5.424-18.532Zm-10.762-13.734-26.415-26.415 21.92-21.92 36.063 36.062-5.045 5.045-1.384-1.9c-2.992-4.281-9.286-7.313-14.375-6.135-6.557 1.519-11.567 8.651-10.764 15.263Zm75.412 112.949c-2.659 8.066-4.129 16.758-4.174 25.817h70.669l1.279-13 7-52.5-50.664 59.101a5 5 0 0 1-7.594-.066l-16.516-19.352ZM923.27 500h60.66c-.181-36.305-23.258-66.736-54.071-74.553L924.5 487.5l-1.23 12.5Zm.325-75.81-52.301 59.653a3 3 0 0 1-4.561-.023l-14.957-17.491c11.406-25.362 35.12-42.829 62.465-42.829 3.171 0 6.294.235 9.354.69Zm6.543-5.876a.961.961 0 0 0-1.035-.232 70.363 70.363 0 0 0-14.862-1.582c-14.503 0-28.08 4.43-39.66 12.119 6.307-10.069 16.697-26.514 30.639-48.104C927 351 967.5 347.808 985.49 348.021c37.97.425 60.76 3.937 74.96 32.494 16.54 35.272 20.98 91.956 20.98 91.956h.01l-.11 27.529h-30.01l-2.81-30.909-7.46-50.009a1.234 1.234 0 0 0-1.21-1.07 1.235 1.235 0 0 0-1.24 1.324L1042 488l1.2 12h-52.27c-.185-40.126-26.235-73.681-60.792-81.686Z" fill="#000"/></svg>

<svg width="1300" height="1000" viewBox="0 0 1300 1000" fill="none" xmlns="http://www.w3.org/2000/svg">
<path fill-rule="evenodd" clip-rule="evenodd" d="M987 335C988.842 334.996 995.88 334.494 999.649 333.086C1004.16 331.402 1008.4 328.149 1011.32 324.473C1013.43 321.821 1015.6 316.437 1016.64 313.644C1017.07 312.468 1017.4 311.256 1017.65 310.027L1022.51 286.194C1022.8 284.411 1023 282.255 1023 280.452C1023 275.669 1022.09 271.437 1020.08 267.054C1018.07 262.671 1015.49 258.822 1011.81 255.57C1008.13 252.318 1003.29 249.522 998.548 247.945C993.811 246.479 991.963 246.167 987 246C982.376 246.038 979.704 246.483 975.324 247.945C969.684 249.828 966.545 251.574 962.189 255.57C958.104 259.319 956.151 262.016 953.919 267.054C951.746 271.959 951.02 275.101 951 280.452C950.992 282.702 951.487 286.194 951.487 286.194L955.58 310.348C955.77 311.47 956.019 312.579 956.381 313.658C957.265 316.288 959.213 321.489 961.703 324.511C965.382 328.977 968.417 331.007 973.865 333.086C978.699 334.931 987 335 987 335ZM987 328C988.484 327.996 994.153 327.573 997.189 326.387C1000.82 324.968 1004.24 322.227 1006.59 319.129C1008.24 316.961 1009.93 312.626 1010.8 310.219C1011.2 309.084 1011.5 307.917 1011.73 306.733L1015.61 286.871C1015.84 285.369 1016 283.552 1016 282.032C1016 278.002 1015.27 274.436 1013.65 270.742C1012.03 267.048 1009.95 263.805 1006.99 261.065C1004.02 258.324 1000.12 255.968 996.302 254.639C992.487 253.403 990.998 253.141 987 253C983.275 253.032 981.122 253.407 977.595 254.639C973.051 256.226 970.522 257.697 967.014 261.065C963.722 264.224 962.15 266.496 960.351 270.742C958.601 274.876 958.016 277.523 958 282.032C957.993 283.928 958.392 286.871 958.392 286.871L961.657 307.026C961.831 308.105 962.06 309.171 962.398 310.21C963.137 312.481 964.673 316.687 966.622 319.161C969.585 322.925 972.03 324.635 976.419 326.387C980.313 327.942 987 328 987 328Z" fill="black"/>
<path d="M873.429 466.31L873.439 466.32L872.979 467.29L872.959 467.34H872.949L872.969 467.29L873.859 465.27L873.919 465.28L873.429 466.31Z" fill="black"/>
<path fill-rule="evenodd" clip-rule="evenodd" d="M700 120C700 108.954 708.954 100 720 100H1180C1191.05 100 1200 108.954 1200 120V900H1300V1000H0V900H700V120ZM722 107H1178C1186.28 107 1193 113.716 1193 122V150H707V122C707 113.716 713.716 107 722 107ZM707 900H1193V507H707V900ZM1193 157V500H1088.96C1089.24 489.502 1089.43 478.946 1089.43 469.162C1089.43 467.5 1083.52 412.035 1066 376C1050.95 346.825 1025.94 341.455 985.817 341.021C948.842 340.595 925.5 348 899.873 375.218C879.5 406 866 428.5 866 428.5L823.5 386.5L804.009 359.734L812.66 351.083C813.832 349.911 813.832 348.012 812.66 346.84L770.941 305.121C769.769 303.949 767.87 303.949 766.698 305.121L739.121 332.698C737.949 333.87 737.949 335.769 739.121 336.941L776.538 374.358L782 396L843.489 468.047C839.713 477.892 837.604 488.685 837.552 500H707V157H1193ZM784.076 374.968L782.961 370.882L782.846 370.767L780.207 361.748C778.854 357.126 782.32 352.5 787.136 352.5C789.55 352.5 791.804 353.707 793.143 355.715L816 390L864.244 436.839C857.2 443.482 851.267 451.499 846.797 460.506L789.5 393.5L784.076 374.968ZM773.314 361.234L746.899 334.819L768.819 312.899L804.882 348.961L799.837 354.006L798.453 352.106C795.461 347.825 789.167 344.793 784.078 345.971C777.521 347.49 772.511 354.622 773.314 361.234ZM848.726 474.183C846.067 482.249 844.597 490.941 844.552 500H915.221L916.5 487L923.5 434.5L872.836 493.601C870.82 495.913 867.217 495.881 865.242 493.535L848.726 474.183ZM923.27 500H983.93C983.749 463.695 960.672 433.264 929.859 425.447L924.5 487.5L923.27 500ZM923.595 424.19L871.294 483.843C870.09 485.238 867.923 485.227 866.733 483.82L851.776 466.329C863.182 440.967 886.896 423.5 914.241 423.5C917.412 423.5 920.535 423.735 923.595 424.19ZM930.138 418.314C929.963 418.133 929.717 418.021 929.444 418.021C929.386 418.021 929.329 418.026 929.273 418.036C929.215 418.046 929.158 418.062 929.103 418.082C924.294 417.044 919.324 416.5 914.241 416.5C899.738 416.5 886.161 420.93 874.581 428.619C880.888 418.55 891.278 402.105 905.22 380.515C927 351 967.5 347.808 985.49 348.021C1023.46 348.446 1046.25 351.958 1060.45 380.515C1076.99 415.787 1081.43 472.471 1081.43 472.471H1081.44L1081.33 500H1051.32L1048.51 469.091L1041.05 419.082C1040.97 418.474 1040.45 418.017 1039.84 418.012C1039.12 418.005 1038.55 418.618 1038.6 419.336L1042 488L1043.2 500H990.93C990.745 459.874 964.695 426.319 930.138 418.314Z" fill="black"/>
</svg>
